X: 25197
T: Malbay Shuffle, The
R: reel
M: 4/4
K: Gmajor
d3G AG G2|EG G2 AGGB|d2 cB AG G2|DEGB AGAB|
d3G AG G2|EG G2 AGGB|d2 cB AG G2|DEGB AGGA||
B3d eg g2|egdg eg g2|B3d eggd|(3efg dB AGEG|
B3d eg g2|egdg eggd|(3efg dB cABG|DEGB AGAB||

